icons/admin-fill.svg

<svg viewBox="0 0 24 24" fill="currentColor" xmlns="http://www.w3.org/2000/svg"><path d="M12 14V22H4C4 17.5817 7.58172 14 12 14ZM12 13C8.685 13 6 10.315 6 7C6 3.685 8.685 1 12 1C15.315 1 18 3.685 18 7C18 10.315 15.315 13 12 13ZM21 17H22V22H14V17H15V16C15 14.3431 16.3431 13 18 13C19.6569 13 21 14.3431 21 16V17ZM19 17V16C19 15.4477 18.5523 15 18 15C17.4477 15 17 15.4477 17 16V17H19Z"/></svg>

<svg xmlns="http://www.w3.org/2000/svg" viewBox="0 0 24 24">
    <g>
        <path fill="none" d="M0 0h24v24H0z"/>
        <path d="M12 14v8H4a8 8 0 0 1 8-8zm0-1c-3.315 0-6-2.685-6-6s2.685-6 6-6 6 2.685 6 6-2.685 6-6 6zm9 4h1v5h-8v-5h1v-1a3 3 0 0 1 6 0v1zm-2 0v-1a1 1 0 0 0-2 0v1h2z"/>
    </g>
</svg>
